incomeartour/img/icons/flower.svg

<svg width="18" height="28" viewBox="0 0 18 28" fill="none" xmlns="http://www.w3.org/2000/svg">
<g opacity="0.9">
<path d="M0.0388785 23.6178C0.0388785 25.6897 1.72467 27.3755 3.79666 27.3755H5.50767L2.85653 24.4938C2.54204 24.1519 2.56422 23.6199 2.90606 23.3054C3.2482 22.9906 3.77995 23.0131 4.09444 23.3549L6.53227 26.0048V24.6396C6.53227 22.5676 4.84648 20.8818 2.77449 20.8818H0.0385742V23.6178H0.0388785Z" fill="black"/>
<path d="M1.27333 0.915737C1.20375 0.862866 1.12869 0.821542 1.05151 0.79541C1.13204 0.82458 1.20648 0.865297 1.27333 0.915737Z" fill="black"/>
<path d="M9.95483 5.45208C11.1469 7.17707 11.8494 9.25726 11.8494 11.4839V14.1056C11.8494 14.376 11.8135 14.6376 11.7527 14.8895C14.0578 13.6471 15.6293 11.2126 15.6293 8.41558V2.47217C15.471 2.47429 15.2954 2.47612 15.1055 2.47703C12.9135 2.4901 10.9983 3.68698 9.95483 5.45208Z" fill="black"/>
<path d="M8.61902 0.0283203C8.20274 0.0283203 7.81107 0.190579 7.51664 0.485015L6.02136 1.98029C7.07088 2.52541 8.02104 3.23825 8.83506 4.08236C9.44824 3.2106 10.2364 2.4698 11.1498 1.91405L9.72111 0.485015C9.42698 0.190579 9.03561 0.0283203 8.61902 0.0283203Z" fill="black"/>
<path d="M1.60779 8.87016C1.60779 12.6735 4.70164 15.7674 8.50531 15.7674C9.42204 15.7674 10.1677 15.0214 10.1677 14.105V11.4833C10.1677 6.7137 6.3534 2.73167 1.60779 2.47461V8.87016Z" fill="black"/>
<path d="M17.1991 23.6174V20.8818H14.4632C12.3912 20.8818 10.7054 22.5676 10.7054 24.6396V26.0045L13.1436 23.3546C13.4584 23.0131 13.9901 22.9906 14.332 23.3051C14.6741 23.6196 14.696 24.1516 14.3815 24.4935L11.7303 27.3752H13.4414C15.5134 27.3752 17.1991 25.6894 17.1991 23.6174Z" fill="black"/>
<path d="M9.69974 26.687V17.4738C9.69974 17.0026 9.31779 16.6206 8.84651 16.6206C8.37523 16.6206 7.99329 17.0026 7.99329 17.4738V26.687C7.99329 27.1583 8.37523 27.5403 8.84651 27.5403C9.31779 27.5403 9.69974 27.1583 9.69974 26.687Z" fill="black"/>
</g>
</svg>

<svg width="18" height="28" fill="none" xmlns="http://www.w3.org/2000/svg"><path d="M.039 23.618a3.762 3.762 0 003.758 3.758h1.71l-2.65-2.882a.841.841 0 011.237-1.14l2.438 2.65V24.64a3.762 3.762 0 00-3.758-3.758H.04v2.736zM1.273.916zm8.682 4.536a10.587 10.587 0 011.894 6.032v2.622c0 .27-.036.532-.096.784a7.356 7.356 0 003.876-6.474V2.472l-.524.005a6.03 6.03 0 00-5.15 2.975zM8.619.028a1.55 1.55 0 00-1.102.457L6.02 1.98c1.05.545 2 1.258 2.814 2.102a7.775 7.775 0 012.315-2.168L9.72.485a1.547 1.547 0 00-1.1-.457zM1.608 8.87a6.905 6.905 0 006.897 6.897c.917 0 1.663-.746 1.663-1.662v-2.622c0-4.77-3.815-8.751-8.56-9.008V8.87zM17.2 23.617v-2.735h-2.737a3.762 3.762 0 00-3.758 3.758v1.364l2.439-2.65a.841.841 0 011.238 1.14l-2.652 2.881h1.711a3.762 3.762 0 003.758-3.758zm-7.5 3.07v-9.213a.853.853 0 10-1.707 0v9.213a.853.853 0 101.707 0z" opacity=".9" fill="#000"/></svg>
